!!!COM: Palestrina, Giovanni Perluigi da
!!!OPR: Missa In semidupl. maj. (I)
!!!OMD: Credo
!!!OTL: Et ex Patre
**kern	**kern	**kern	**kern	**kern
*Ibass	*Itenor	*Itenor	*Icalto	*Icant
!Bassus	!Tenor 2	!Tenor 1	!Altus	!Cantus
*clefF4	*clefGv2	*clefGv2	*clefG2	*clefG2
*k[b-]	*k[b-]	*k[b-]	*k[b-]	*k[b-]
*F:ion	*F:ion	*F:ion	*F:ion	*F:ion
*M4/2	*M4/2	*M4/2	*M4/2	*M4/2
=22	=22	=22	=22	=22
0r	0r	0r	0r	1f
.	.	.	.	1c
=23	=23	=23	=23	=23
0r	0r	0r	1B-	2f
.	.	.	.	2g
.	.	.	1F	1a
=24	=24	=24	=24	=24
0r	0r	0r	2B-	1g
.	.	.	2c	.
.	.	.	4d	2f
.	.	.	4c	.
.	.	.	4B-	[2b-
.	.	.	4c	.
=25	=25	=25	=25	=25
0r	1F	0r	4d	2b-]
.	.	.	4e	.
.	.	.	1f	2a
.	1C	.	.	1g
.	.	.	2e	.
=26	=26	=26	=26	=26
1BB-	2F	0r	1d	2f
.	2G	.	.	4d
.	.	.	.	4e
1FF	1A	.	1c	4f
.	.	.	.	4g
.	.	.	.	[2f
=27	=27	=27	=27	=27
2BB-	1G	1r	2d	2f]
2C	.	.	4c	2e
.	.	.	4B-	.
1D	4F	2r	1A	2d
.	4G	.	.	.
.	4A	2F	.	[2f
.	4B-	.	.	.
=28	=28	=28	=28	=28
1C	1c	1G	2r	2f]
.	.	.	2c	2e
2BB-	1r	1B-	1d	1f
[2BB-	.	.	.	.
=29	=29	=29	=29	=29
4BB-]	2r	2B-	1f	0r
4C	.	.	.	.
4D	2.F	2B-	.	.
4E	.	.	.	.
1F	.	1A	2f	.
.	4G	.	.	.
.	4A	.	2f	.
.	4B-	.	.	.
=30	=30	=30	=30	=30
1C	1c	1G	1e	0r
2D	2A	1F	1d	.
2BB-	[2B-	.	.	.
=31	=31	=31	=31	=31
2.F	2B-]	1r	2c	1f
.	2A	.	2f	.
8E	.	.	.	.
8D	.	.	.	.
4C	1c	2r	1e	1g
4D	.	.	.	.
4E	.	[2G	.	.
4F	.	.	.	.
=32	=32	=32	=32	=32
2G	2B-	4G]	1d	1b-
.	.	4A	.	.
2.GG	2B-	4B-	.	.
.	.	4c	.	.
.	1G	2d	[1d	2b-
4AA	.	.	.	.
4BB-	.	2D	.	2b-
4C	.	.	.	.
=33	=33	=33	=33	=33
4D	2r	2.F	2d]	1a
4E	.	.	.	.
1F	2F	.	2c	.
.	.	4F	.	.
.	1G	1C	1c	1g
2E	.	.	.	.
=34	=34	=34	=34	=34
4D	1B-	1F	0d	2f
4C	.	.	.	.
4BB-	.	.	.	2.b-
4AA	.	.	.	.
1GG	2B-	2.G	.	.
.	.	.	.	4a
.	2B-	.	.	[2g
.	.	4F	.	.
=35	=35	=35	=35	=35
2.AA	1A	4E	1c	4g]
.	.	4C	.	4f
.	.	1c	.	1f
4BB-	.	.	.	.
1C	2.G	.	1c	.
.	.	2G	.	2e
.	4G	.	.	.
=36	=36	=36	=36	=36
[0FF	[0F	[0A	[0c	[0f
=37	=37	=37	=37	=37
0FF]	0F]	0A]	0c]	0f]
*-	*-	*-	*-	*-
!!!CDT: 1525/^1526/-1594/2/2
!!!OCY: Italia
!!!AGN: Mass (Paraphrase)
!!!AST: renaissance, vocal
!!!ASW: Gregorian Mass
!!!PWK: Masses, Book Mantuan II
!!!RNB: Cadence finals: C
!!!YOR: Le Opere Complete, v. 19, p. 129
!!!YOO: Rome, Italy: Fratelli Scalera
!!!END: 1992//
!!!EED: John Miller
!!!YEC: Copyright 2000, John Miller
!!!YEN: United States of America
!!!YEM: Rights to all derivative electronic formats reserved.
!!!YEM: Refer to licensing agreement for further details.
!!!YEM: This file must be accompanied by the licensing agreement.
!!!YEM: A copy of the licensing agreement may be found at http://www.music-cog.ohio-state.edu/HumdrumDatabases/Palestrina/license.txt
!!!EMD: converted to Humdrum by Bret Aarden
